X:1
T:In die Berg bin i gern
Z:abc transcription Simon Wascher
F:http://simonwascher.info/
M:3/4
L:1/8
K:G
DD |\
B2G2E2 | D4DD | B2G2E2 | D4GG |
A2G2E2 | DGG2GB | c3FF2 | G4GG |
A2G2E2 | DGG2GB | c3FF2 | G4 |]
